X: 2
T: Woodbridge Breakdown
C: Andy De Jarlis
K: A
M: C|
|:\
"A"EGAB cA A2 | efedc2 A2 | "G"EF=GA BG G2 | Bdde dBcA |\
"A"EGAB cA A2 |
                efedc2 ef | "G"=gefd efed | "A"c2 "E7"BG "A"A4 ::\
"A"ea- aa abaf | ea- aa abaf |
                               "Em"edef =g2gf | "G"=gedB =GABd |\
"A"ea- aa abaf | ea- aa a2ef | "G"=gefd  efed | "A"c2 "E7"BG "A"A4 :|


